X:1
T:I Am the LORD Your God
T:Tune: Alexey Lvov, 1833 Text under copyright; for copyrighted material see Psalter Hymnal 199
T:11 10 11 10 RUSSIA www.hymnary.org/text/i_am_the_lord_your_god
T:I Am the LORD Your God
T:This tune is in the public domain. You may freely use this score for personal and congregational worship. If you reproduce the score, please credit Hymnary.org as the source. 
T:This tune is in the public domain. You may freely use this score for personal and congregational worship. If you reproduce the score, please credit Hymnary.org as the source. 
Z:This tune is in the public domain. You may freely use this score for personal and congregational worship. If you reproduce the score, please credit Hymnary.org as the source.
%%score ( 1 2 ) ( 3 4 )
L:1/8
M:4/4
K:D
V:1 treble nm="SOPRANO ALTO" snm="S. A."
V:2 treble 
V:3 bass nm="TENOR BASS" snm="T. B."
V:4 bass 
V:1
 A4 B2 B2 | A3 F D4 | d4 c2 B2 | A4 B4 | G4 A2 A2 | F4 F2 ^G2 | A4 ^G2 G2 | F8 | G4 F2 E2 | %9
 F4 F2 F2 | (d3 c) B2 ^A2 | B4 A4 |1 d4 c2 B2 | A4 A2 G2 | F4 E2 E2 | D8 |] %16
V:2
 D4 D2 D2 | D3 D D4 | D4 D2 D2 | D4 ^D4 | E4 E2 E2 | D4 D2 F2 | F4 ^E2 E2 | C8 | C4 C2 C2 | %9
 D4 D2 E2 | (D2 G2) F2 E2 | D4 C4 |1 D4 D2 D2 | (D2 =C2) B,2 E2 | D4 C2 C2 | D8 |] %16
V:3
 F,4 G,2 G,2 | F,3 A, F,4 | B,4 A,2 G,2 | F,4 (F,2 B,2) | B,4 A,2 A,2 | A,4 A,2 D2 | C4 C2 B,2 | %7
 A,8 | E,4 A,2 G,2 | F,4 A,2 ^A,2 | (B,3 C) D2 C2 | (B,2 E,2) (F,2 G,2) |1 F,4 F,2 G,2 | %13
 F,4 E,2 B,2 | A,4 A,2 G,2 | F,8 |] %16
V:4
 D,4 G,,2 B,,2 | D,3 D, D,4 | G,,4 G,,2 B,,2 | D,4 B,,4 | E,4 C,2 C,2 | D,4 D,2 B,,2 | %6
 C,4 C,2 C,2 | F,8 | A,,4 A,,2 A,,2 | D,4 D,2 C,2 | (B,,2 E,2) F,2 F,,2 | G,,4 A,,4 |1 %12
 B,,4 A,,2 G,,2 | (D,2 ^D,2) E,2 G,,2 | A,,4 A,,2 G,,2 | D,8 |] %16

